!!!OTL: Abfertigung.
!!!ARE: Europa, Mitteleuropa, Deutschland
!!!SCT: A0221
!!!TXL: @@GMH
!!!YEM: Copyright 1995, estate of Helmut Schaffrath.
**kern	**text
*M4/4	*
*met(c)	*
*clefF2	*
*k[]	*
*a:aeo	*
=1	=1
!LO:TX:a:t=aeol.	!
{4A	I._Un-
4A	-luſt
4A	det
4A	dich
=2	=2
2B	grüſ-
4B	-ſen,
4B	din
=3	=3
4e	lib
4e	vnd
4d	och
4c	din
=4	=4
2B	gůt,
2r}	.
=5	=5
{4c	kurʒ-
4c	-weil
4d	kanſt
4d	mir
=6	=6
2e	büſ-
4d	-ſen,
4d	ver-
=7	=7
4e	-tri-
4e	-ben
4d	fröd
4c	vnd
=8	=8
2B	můt,
2r}	.
=9	=9
{4B	mit
4B	dem
4c	glimpf
4c	den
=10	=10
4B	du
4A	wol
2B	waiſt;
=11	=11
4B	du
4B	fröwſt
4E	mich
4E	da-
=12	=12
4G	-hin-
4G	-ten
4A/	al-
4A/	-ler
=13	=13
2B	maiſt,
4r}	.
{4B	din
=14	=14
4d	ʒu-
4A	-kunft
4B	bringt
4c	mir
=15	=15
*lig	*
4e	lieb
4d	.
4c	.
*Xlig	*
4c	und
=16	=16
*lig	*
4B	le-
4A	.
*Xlig	*
2A}	-ben.
==	==
!!!GTL: Liebeslieder
!!!AGN: Romanze, Ballade, Lied
!! None, Anzeiger VI, 1837, Beil. II. No. 7. Original: Cod. von
!!    St. Blasien, 15. Jh.
!!!ONB: ESAC (Essen Associative Code) Database: ALTDEU
!!!AMT: simple quadruple
!!!AIN: vox
!!!EED: Helmut Schaffrath
!!!EEV: 1.0
!!!AMD: Aeolian
!!!URL-scan: https://rosdok.uni-rostock.de/mcrviewer/recordIdentifier/rosdok_ppn738218359/iview2/phys_0377.iview2?x=-288.30624312169084&y=2689.478658113163&scale=0.525745414975722&rotation=0&layout=singlePageLayout
!!!ENC: Anna Maria Matuszewska
!!!EEV: 2024/08/03
*-	*-
